X: 1
T: Bunkhouse Reel
O: origin unknown
N: Named taken from a square dance, also known as The Judge's Jig.
R: jig
Z: 2012 John Chambers <jc:trillian.mit.edu>
B: Ralph Page "Northern Junket", v.5, #5, Feb. 1956
M: 6/8
L: 1/8
K: G
zD |\
D^CD EDB, | G,B,D B3 | cAF DEF | GBA GFE |\
D^CD EDB, | G,B,D B3 | cAF DEF | G3-G :|
|: Bd |\
bgd gdB | dBG BGD | DFA cBA | GBe dBd |\
bgd gdB | dBG BGD | DFA cBA | G3-G :|

%%sep 1 1 500

